X:102
T: ACH SCHIFFER, LIEBER SCHIFFER, STOSS' NOCH NICHT AB
N: Z0102
O: Europa, Mitteleuropa, Deutschland, Niederrhein
R: Sagen - Lied, Romanze
M: 2/4
L: 1/16
K: Bb
B2 | A2F2B2c2 | d4c2
d2 | e2d2c2B2 | A2G2F2
B2 | A2F2B2c2 | d4c2
d2 | e2d2c2dc | B4z2
d2 | d2d2d2c2 | c4c2
=e2 | f2e2f2g2 | c2c2c2
B2 | A2F2B2c2 | d4c2
d2 | e2d2c2dc | B4z2

@@@ Tune index: 9860
